X:22
T:Pollonesse no 22
T:ur Andreas Dahlgrens Notbok
N:
C:Trad.
B:Andreas Dahlgrens Notbok
D:
Z:Konverterad till abc av Olle Paulsson 170412
Z:http://fmk.musikverket.se/browselarge.php?lang=sw&katalogid=Ma+7&bildnr=00011
M:3/4
L:1/16
K:A
e2fg a2a2g2g2 | f2f2 Te8 | c2Bc d2d2c2c2 | B2B2 A8:|
|:A2Bc B2B2 B4  | B2cd c2c2 c4 | c2de d2d2 d4 | d2ef e2e2 e4 | 
e2fg a2a2g2g2 | f2f2 Te8 | c2Bc d2d2c2c2 | B2B2 A8:|

